X: 17177
T: Hennessy & Kerr
R: jig
M: 6/8
K: Adorian
|:~A3 ABd|edB g2f|edB Agf|edB GAB|
~A3 ABd|edB g2a|bag eag|1 edB BAG:|2 edB Aef||
g3 gfg|aba aef|ged Bgf|edB Gef|
g3 gfg|aba aga|bag eag|edB Aef|
g3 gfg|ac'b a2f|ged Bgf|edB GAB|
~A3 ABd|edB g2a|bag eag|edB ~A3||

